src/assets/icons/button-icons/italic.svg

<?xml version="1.0" encoding="UTF-8" standalone="no"?>
<svg
   xmlns:dc="http://purl.org/dc/elements/1.1/"
   xmlns:cc="http://creativecommons.org/ns#"
   xmlns:rdf="http://www.w3.org/1999/02/22-rdf-syntax-ns#"
   xmlns:svg="http://www.w3.org/2000/svg"
   xmlns="http://www.w3.org/2000/svg"
   xmlns:sodipodi="http://sodipodi.sourceforge.net/DTD/sodipodi-0.dtd"
   xmlns:inkscape="http://www.inkscape.org/namespaces/inkscape"
   height="24px"
   viewBox="0 0 24 24"
   width="24px"
   fill="#000000"
   version="1.1"
   id="svg6"
   sodipodi:docname="italic.svg"
   inkscape:version="1.0.2 (e86c870879, 2021-01-15)">
  <metadata
     id="metadata12">
    <rdf:RDF>
      <cc:Work
         rdf:about="">
        <dc:format>image/svg+xml</dc:format>
        <dc:type
           rdf:resource="http://purl.org/dc/dcmitype/StillImage" />
      </cc:Work>
    </rdf:RDF>
  </metadata>
  <defs
     id="defs10" />
  <sodipodi:namedview
     pagecolor="#ffffff"
     bordercolor="#666666"
     borderopacity="1"
     objecttolerance="10"
     gridtolerance="10"
     guidetolerance="10"
     inkscape:pageopacity="0"
     inkscape:pageshadow="2"
     inkscape:window-width="1885"
     inkscape:window-height="1056"
     id="namedview8"
     showgrid="false"
     inkscape:zoom="10.532945"
     inkscape:cx="-3.1260641"
     inkscape:cy="13.697379"
     inkscape:window-x="35"
     inkscape:window-y="0"
     inkscape:window-maximized="1"
     inkscape:current-layer="svg6" />
  <path
     d="M0 0h24v24H0V0z"
     fill="none"
     id="path2" />
  <path
     d="M 9.3766361,3.147375 V 6.9554997 H 12.181954 L 7.8406925,17.110499 H 4.2991366 v 3.808124 H 14.454135 V 17.110499 H 11.648817 L 15.990079,6.9554997 h 3.541556 V 3.147375 Z"
     id="path4"
     style="stroke-width:1.26937" />
</svg>

<?xml version="1.0" encoding="UTF-8"?><svg width="24px" height="24px" fill="#000000" version="1.1" viewBox="0 0 24 24" xmlns="http://www.w3.org/2000/svg" xmlns:cc="http://creativecommons.org/ns#" xmlns:dc="http://purl.org/dc/elements/1.1/" xmlns:rdf="http://www.w3.org/1999/02/22-rdf-syntax-ns#"><path d="M0 0h24v24H0V0z" fill="none"/><path d="m9.3766 3.1474v3.8081h2.8053l-4.3413 10.155h-3.5416v3.8081h10.155v-3.8081h-2.8053l4.3413-10.155h3.5416v-3.8081z" stroke-width="1.2694"/></svg>
